femmes/public/img/illustrations/slide1/blue-target.svg

<?xml version="1.0" encoding="UTF-8" standalone="no"?>
<svg
   width="252"
   height="293"
   viewBox="0 0 252 293"
   fill="none"
   version="1.1"
   id="svg27"
   sodipodi:docname="blue-target.svg"
   inkscape:version="1.1.2 (0a00cf5339, 2022-02-04)"
   xmlns:inkscape="http://www.inkscape.org/namespaces/inkscape"
   xmlns:sodipodi="http://sodipodi.sourceforge.net/DTD/sodipodi-0.dtd"
   xmlns="http://www.w3.org/2000/svg"
   xmlns:svg="http://www.w3.org/2000/svg">
  <sodipodi:namedview
     id="namedview29"
     pagecolor="#ffffff"
     bordercolor="#666666"
     borderopacity="1.0"
     inkscape:pageshadow="2"
     inkscape:pageopacity="0.0"
     inkscape:pagecheckerboard="0"
     showgrid="false"
     height="410px"
     inkscape:zoom="1.4950749"
     inkscape:cx="126.08064"
     inkscape:cy="274.23375"
     inkscape:window-width="1916"
     inkscape:window-height="1053"
     inkscape:window-x="0"
     inkscape:window-y="0"
     inkscape:window-maximized="1"
     inkscape:current-layer="svg27" />
  <path
     d="M 41.1102,33.31 96.7417,79.785 M 30.7017,11.5934 53.3028,29.521 M 91.8702,39.272 48.3087,3.1543"
     stroke="#5bc5f2"
     stroke-width="3"
     id="path2" />
  <g
     clip-path="url(#clip0_378_226)"
     id="g20"
     transform="translate(0,-72)">
    <path
       d="m 205.228,364.262 c 66.361,1.073 121.027,-51.854 122.1,-118.215 1.073,-66.361 -51.854,-121.027 -118.215,-122.1 -66.361,-1.073 -121.0268,51.854 -122.0997,118.215 -1.0729,66.361 51.8537,121.027 118.2147,122.1 z"
       fill="#5bc5f2"
       id="path4" />
    <path
       fill-rule="evenodd"
       clip-rule="evenodd"
       d="m 208.608,155.212 c -49.094,-0.794 -89.536,38.361 -90.33,87.455 -0.794,49.094 38.361,89.536 87.456,90.33 49.094,0.794 89.536,-38.361 90.329,-87.455 0.794,-49.095 -38.361,-89.537 -87.455,-90.33 z m -93.214,87.409 c 0.82,-50.687 42.574,-91.112 93.26,-90.293 50.687,0.82 91.112,42.573 90.293,93.26 -0.82,50.687 -42.573,91.112 -93.26,90.293 -50.687,-0.82 -91.112,-42.574 -90.293,-93.26 z"
       fill="#000000"
       id="path6" />
    <path
       d="m 206.191,304.672 c -33.397,-0.54 -60.129,-28.149 -59.589,-61.547 0.54,-33.398 28.15,-60.129 61.548,-59.589 33.398,0.54 60.128,28.15 59.588,61.548 -0.54,33.397 -28.149,60.128 -61.547,59.588 z m 1.912,-118.252 c -31.807,-0.514 -58.103,24.945 -58.617,56.752 -0.514,31.808 24.944,58.103 56.752,58.617 31.808,0.514 58.103,-24.945 58.617,-56.751 0.514,-31.807 -24.945,-58.104 -56.752,-58.618 z"
       fill="#000000"
       id="path8" />
    <path
       fill-rule="evenodd"
       clip-rule="evenodd"
       d="m 207.583,218.609 c -14.081,-0.228 -25.68,11.002 -25.908,25.083 -0.227,14.081 11.003,25.68 25.083,25.908 14.081,0.227 25.68,-11.003 25.908,-25.084 0.227,-14.08 -11.003,-25.679 -25.083,-25.907 z m -28.791,25.036 c 0.253,-15.673 13.164,-28.173 28.837,-27.92 15.674,0.254 28.174,13.165 27.92,28.838 -0.253,15.673 -13.164,28.174 -28.837,27.92 -15.673,-0.253 -28.174,-13.164 -27.92,-28.838 z"
       fill="#000000"
       id="path10" />
    <path
       d="m 197.763,248.197 -0.164,-2.88 9.186,-0.522 7.253,-10.692 2.386,1.619 -8.052,11.872 z"
       fill="#000000"
       id="path12" />
    <path
       d="m 115.831,148.577 -2.072,2.006 92.658,95.703 2.072,-2.006 z"
       fill="#000000"
       id="path14" />
    <path
       d="m 119.6,154.42 -21.6065,-12.873 1.4757,-2.477 11.8058,7.033 -6.945,-11.632 2.476,-1.479 z"
       fill="#000000"
       id="path16" />
    <path
       d="m 102.603,135.167 -2.072,2.006 13.102,13.533 2.072,-2.006 z"
       fill="#000000"
       id="path18" />
  </g>
  <defs
     id="defs25">
    <clipPath
       id="clip0_378_226">
      <rect
         width="240.347"
         height="240.347"
         fill="#ffffff"
         transform="rotate(0.926248,-7502.272,5563.5096)"
         id="rect22"
         x="0"
         y="0" />
    </clipPath>
  </defs>
</svg>

<svg width="252" height="411" viewBox="0 0 252 411" fill="none" xmlns="http://www.w3.org/2000/svg">
<path d="M41.1102 105.31L96.7417 151.785M30.7017 83.5934L53.3028 101.521M91.8702 111.272L48.3087 75.1543" stroke="#5BC5F2" stroke-width="3"/>
<g clip-path="url(#clip0_378_226)">
<path d="M205.228 364.262C271.589 365.335 326.255 312.408 327.328 246.047C328.401 179.686 275.474 125.02 209.113 123.947C142.752 122.874 88.0862 175.801 87.0133 242.162C85.9404 308.523 138.867 363.189 205.228 364.262Z" fill="#5BC5F2"/>
<path fill-rule="evenodd" clip-rule="evenodd" d="M208.608 155.212C159.514 154.418 119.072 193.573 118.278 242.667C117.484 291.761 156.639 332.203 205.734 332.997C254.828 333.791 295.27 294.636 296.063 245.542C296.857 196.447 257.702 156.005 208.608 155.212ZM115.394 242.621C116.214 191.934 157.968 151.509 208.654 152.328C259.341 153.148 299.766 194.901 298.947 245.588C298.127 296.275 256.374 336.7 205.687 335.881C155 335.061 114.575 293.307 115.394 242.621Z" fill="black"/>
<path d="M206.191 304.672C172.794 304.132 146.062 276.523 146.602 243.125C147.142 209.727 174.752 182.996 208.15 183.536C241.548 184.076 268.278 211.686 267.738 245.084C267.198 278.481 239.589 305.212 206.191 304.672ZM208.103 186.42C176.296 185.906 150 211.365 149.486 243.172C148.972 274.98 174.43 301.275 206.238 301.789C238.046 302.303 264.341 276.844 264.855 245.038C265.369 213.231 239.91 186.934 208.103 186.42Z" fill="black"/>
<path fill-rule="evenodd" clip-rule="evenodd" d="M207.583 218.609C193.502 218.381 181.903 229.611 181.675 243.692C181.448 257.773 192.678 269.372 206.758 269.6C220.839 269.827 232.438 258.597 232.666 244.516C232.893 230.436 221.663 218.837 207.583 218.609ZM178.792 243.645C179.045 227.972 191.956 215.472 207.629 215.725C223.303 215.979 235.803 228.89 235.549 244.563C235.296 260.236 222.385 272.737 206.712 272.483C191.039 272.23 178.538 259.319 178.792 243.645Z" fill="black"/>
<path d="M197.763 248.197L197.599 245.317L206.785 244.795L214.038 234.103L216.424 235.722L208.372 247.594L197.763 248.197Z" fill="black"/>
<path d="M115.831 148.577L113.759 150.583L206.417 246.286L208.489 244.28L115.831 148.577Z" fill="black"/>
<path d="M119.6 154.42L97.9935 141.547L99.4692 139.07L111.275 146.103L104.33 134.471L106.806 132.992L119.6 154.42Z" fill="black"/>
<path d="M102.603 135.167L100.531 137.173L113.633 150.706L115.705 148.7L102.603 135.167Z" fill="black"/>
</g>
<defs>
<clipPath id="clip0_378_226">
<rect width="240.347" height="240.347" fill="white" transform="translate(88.9559 122.004) rotate(0.926248)"/>
</clipPath>
</defs>
</svg>
